T: House Of Little Lights, The
M: 3/4
L: 1/8
K: Fdor
G|D|A|DA|A|A|Bm|G|D|AD|A|A|A|Bm|G|D|G|Bm|F#7|F#|F#7|GG|D|G|BmA|A|A|G
